X: 20
M:3/4
L:1/8
K:Bb
"Andantino"GF|D2 G2 GF|G2 A2 c2|d=e fe dc|A4 dB|A2 G2 GF|G3 A B2|A2 G2 FD|D6|
d2 g2 gf|g3 a b2|a2 g2 fd|d4 =e2|f3 g fd|f2 g2 a>g|fd cB AG|F4 dc|

